X: 33
T: 33. Herr, ich habe mi\ssgehandelt
N: Derived from chor033.krn
C: Johann Sebastian Bach
%%abc-version 2.0
%%abcx-abcm2ps-target-version 5.9.1 (29 Sep 2008)
%%abc-creator hum2abc beta
%%abcx-conversion-date 2019/03/11 17:28:17
%%abc-edited-by Craig Stuart Sapp
%%humdrum-veritas 2046639443
%%humdrum-veritas-data 4290081461
%%
%%barnumbers 0
L: 1/8
M: C
%%staves [1 2 3 4]
V: 1 clef=treble
V: 2 clef=treble
V: 3 clef=treble-8
V: 4 clef=bass
K: C
[V:1] A2E^F^G2A2 | 
[V:2] EDC2B,2A,2 | 
[V:3] cBA2Ee dc | 
[V:4] A,,B,, C,D,E,2^F,2 | 
[V:1] Bc/d/ cBB2!fermata!A2 | 
[V:2] E2E=FE2!fermata!E2 | 
[V:3] B^GA2-A^G!fermata!c2 | 
[V:4] ^G,E, A,D, E,E,,!fermata!A,,2 | 
[V:1] c2B2A2B2 | 
[V:2] A=G FE EA2^G | 
[V:3] e2d2c2FE | 
[V:4] A,,A,2^G, A,F,D,E, | 
[V:1] c2d2!fermata!e4 :|]  
[V:2] AE AB/A/!fermata!^G4 :|]  
[V:3] EA2^G/A/!fermata!B4 :|]  
[V:4] A,,G,,F,,2!fermata!E,,4 :|]  
[V:1] e2f2g2c2 | 
[V:2] A2A2G2AG | 
[V:3] c2d2-dcc2- | 
[V:4] A,,A,=G,F,E,2F,E, | 
[V:1] f2e2d2!fermata!c2 | 
[V:2] AdG3G/F/!fermata!E2 | 
[V:3] cBc3B!fermata!G2 | 
[V:4] D,2E,F, G,G,,!fermata!C,2 | 
[V:1] d2d2e2A2 | 
[V:2] GAB2-B^G A=G | 
[V:3] Bdgfe3d | 
[V:4] G,F,E,D, C,D,C,B,, | 
[V:1] d2cBB4 | 
[V:2] FE EFE3D | 
[V:3] cBA2A2^G2 | 
[V:4] A,,^G,,A,,D,E,2E,,2 | 
[V:1] !fermata!A6z2 |]  
[V:2] !fermata!^C6x2 |]  
[V:3] !fermata!E6x2 |]  
[V:4] !fermata!A,,6z2 |]  



